X: 1
T: \'Ciro Kolo
O: Croatia
M: 2/4
L: 1/8
P: G
K: G
|: "G"[GD][BG] [dB][dB] | [dB][ec] [dB][BG] | [dB][dB] "D7"[cA][cA] | "G"[BG][BG] [AF][GD] :| \
|: "G"[B2G] "D7"[cA][AF] | "G"[B2G] "D7"[cA][AF] | "G"[BG][BG] "D7"[AF][AF] |1 "G"[G3D][AF] :|2 "G"[G3D]z |]
P: C
K: C
|: "C"[cG][ec] [ge][ge] | [ge][af] [ge][ec] | [ge][ge] "G7"[fd][fd] | "C"[ec][ec] [dB][cG] :| \
|: "C"[e2c] "G7"[fd][dB] | "C"[e2c] "G7"[fd][dB] | "C"[ec][ec] "G7"[dB][dB] |1 "C"[c3G][dB] :|2 "C"[c3G]z |]
%%sep 10 10 200
P: A
K: A
|: "A"[AE][cA] [ec][ec] | [ec][fd] [ec][cA] | [ec][ec] "E7"[dB][dB] | "A"[cA][cA] [BG][AE] :| \
|: "A"[c2A] "E7"[dB][BG] | "A"[c2A] "E7"[dB][BG] | "A"[cA][cA] "E7"[BG][BG] |1 "A"[A3E][BG] :|2 "A"[A3E]z |]
P: D
K: D
|: "D"[dA][fd] [af][af] | [af][bg] [af][fd] | [af][af] "A7"[ge][ge] | "D"[fd][fd] [ec][dA] :| \
|: "D"[f2d] "A7"[ge][ec] | "D"[f2d] "A7"[ge][ec] | "D"[fd][fd] "A7"[ec][ec] |1 "D"[d3A][ec] :|2 "D"[d3A]z |]
